!!!COM: Louise Reichardt
!!!CNT: Deutsch
!!!TXO: Deutsch
!!!OTL: Betteley der Vo2gel
!!!LYR: Aus des Knaben Wunderhorn (eds. von Arnim and Brentano)
!!!OPR: 
!!!OPS: No opus information available
!!!ONM: No. 3
!!!ENC: Ben Fuhrman
!!!YOR: Louise Reichardt: Songs
!!!YOR: New York, Da Capo Press, 1981
!!!ODT: 1800 - 1826
!!NB: Only vocal melody encoded.
!!NB: First instance of melodic material only encoded.
!!created: 2/17/10 1:39PM
!!proofed and posted: 2/17/10 1:39PM
**kern	**silbe
*clef G2	*
*k[f#]	*
*M2/4	*
*MM[Leicht und Fro2hlich]	*
=6	=6
4r	.
{8b	{Es
8cc	ist
=7	=7
8dd	kom-
8dd	-men
8dd	es
8dd	ist
=8	=8
8gg	kom-
8dd	-men
8dd	der
8dd	ge-
=9	=9
8ee	-wu2nsch-
8dd	-te
8cc	Fru2h-
8b	-lings-
=10	=10
4a}	-both',}
{8a	{so
(16b	uns
16cc#)	|
=11	=11
8dd	al-
8dd	-les
(16dd	Leid
16ee)	|
(16ff	de-
16gg)	|
=12	=12
8aa	-nom-
8ff	-men
8dd	und
8ff	die
=13	=13
8a	kal-
8a	-te
8a	Win-
(16b	-ters
16cc#)	|
=14	=14
4dd}	Noth.}
{(16.dd	{wel-
32ee)	|
(16.dd	-cher
32ee)	|
=15	=15
8dd	gu-
8dd	-te
8.dd	Stun-
16cc	-den
=16	=16
8cc	brin-
8b	-get,
8dd	und
16ee	ein
16ff	|
=17	=17
8gg	gu-
8dd	-tes
8b	Jahr
8g	be-
=18	=18
4g	-din-
(bq	|
4a)	|
=19	=19
4g}	-get.}
4r	.
==	==
*-	*-
